icons/svg/16x16/device monitor/outline.svg

<svg width="16" height="16" fill="none" xmlns="http://www.w3.org/2000/svg">
  <path fill-rule="evenodd" clip-rule="evenodd" d="M14 8.457a.995.995 0 01-.769.973C12.048 9.689 10.179 10 8 10s-4.048-.311-5.231-.57A.995.995 0 012 8.457V4.543c0-.466.323-.875.769-.973A24.857 24.857 0 018 3c2.179 0 4.048.311 5.231.57a.995.995 0 01.769.973v3.914zm-.339-6.84A26.858 26.858 0 008 1c-2.358 0-4.38.336-5.661.617A3.006 3.006 0 000 4.543v3.914c0 1.397.983 2.628 2.339 2.926.691.151 1.602.317 2.661.439V13H4a1 1 0 100 2h8a1 1 0 100-2h-1v-1.178a27.136 27.136 0 002.661-.439A3.007 3.007 0 0016 8.457V4.543a3.006 3.006 0 00-2.339-2.926z" fill="#000"/>
</svg>

<svg xmlns="http://www.w3.org/2000/svg" width="16" height="16" viewBox="0 0 16 16">
  <path fill-rule="evenodd" d="M14,8.457 C14,8.923 13.677,9.332 13.231,9.43 C12.048,9.689 10.179,10 8,10 C5.821,10 3.952,9.689 2.769,9.43 C2.323,9.332 2,8.923 2,8.457 L2,4.543 C2,4.077 2.323,3.668 2.769,3.57 C3.952,3.311 5.821,3 8,3 C10.179,3 12.048,3.311 13.231,3.57 C13.677,3.668 14,4.077 14,4.543 L14,8.457 Z M13.661,1.617 C12.38,1.336 10.358,1 8,1 C5.642,1 3.62,1.336 2.339,1.617 C0.983,1.915 0,3.145 0,4.543 L0,8.457 C0,9.854 0.983,11.085 2.339,11.383 C3.03,11.534 3.941,11.7 5,11.822 L5,13 L4,13 C3.447,13 3,13.447 3,14 C3,14.553 3.447,15 4,15 L12,15 C12.553,15 13,14.553 13,14 C13,13.447 12.553,13 12,13 L11,13 L11,11.822 C12.059,11.7 12.97,11.534 13.661,11.383 C15.017,11.085 16,9.854 16,8.457 L16,4.543 C16,3.145 15.017,1.915 13.661,1.617 L13.661,1.617 Z"/>
</svg>
